X:317
T:Tinker's Horse, The
D:Wick S.C.D., The Sound of the North (1970)
O:Scotland
Z:Nigel Gatherer
L:1/8
M:4/4
K:A
EF|AAAE c2 BA|BABc B2 cd|eefe c2 BA|F4 Ed cd|
eefe c2 BA|BABc B2 EF|AABc B2 AF|E4 E2:|
cd|eefe c2 BA|BABc B2 cd|eefe c2 BA|F4 Ed cd|
eefe c2 BA|BABc B2 EF|AABc B2 AF|E4 E2:|
